X: 4
T: Julia Delaney's
R: reel
M: 4/4
L: 1/8
K: Ddor
|dcAG F2DF | E2CE F2A,F | dcAG EFDF| A~d3 defe |dcAG D~F3 | D ~E3 D ~F3 | dcAG EFDF|1 A~d3 ~d3z:|2 A~d3 ~d3 e|||f2de fagf | ecgc acgc | fAde fagf| eBcB A d{e}de|fAde fagf | (3edcgc acgc | fedf edcB|1 A ~d3 ~d3 e :|2 A~d3 ~d3z|


Tune 589	Setting 13591

